!!!!SEGMENT: pl-cz--iii-271--005_gotschalk-filip--vesperae-laudate-dominum.krn
!!!cenid: 18xx:135
!!!COM: Gotschalk, Filip
!!!COM-rismID: pe30020320
!!!CDT: 1760-1809
!!!CNT:
!!!OPR: Vesperae
!!!OTL: Laudate dominum
!!!OMV: 005
!!!PDT:
!!!AGN: Sacred; Vespers
!!!SMS-siglum: PL-CZ
!!!SMS-shelfmark: III-271
!!!SMS-shelfwork: 001-005 M
!!!NIFC-rismSourceID:
!!!NIFC-islandoraID: pl-cz:36995
!!!URL-pdf-islandora: https://repozytorium.nifc.pl/islandora/object/pl-cz%3A36995/datastream/PDF/view
!!!URL-scan:
!!!ONB-nifc:
!!!AIN: 3 empty 1 organ 2 violn 1 vox
!!!key:
**kern	**fb	**kern	**kern	**kern	**text	**text	**kern	**text	**text	**kern	**kern
*part7	*	*part6	*part5	*part4	*part4	*part4	*part3	*part3	*part3	*part2	*part1
*staff7	*	*staff6	*staff5	*staff4	*staff4	*staff4	*staff3	*staff3	*staff3	*staff2	*staff1
*group4	*	*group3	*group3	*group2	*	*	*group2	*	*	*group1	*group1
*	*	*	*	*	*verse1	*verse2	*	*verse1	*verse2	*	*
*Iorgan	*	*Ivioln	*Ivioln	*Iempty	*	*	*Ivox	*	*	*Iempty	*Iempty
*I"Organo	*	*I"Violino Secondo	*I"Violino Primo	*I"Baſso	*	*	*I"Canto	*	*	*I"Clarino Secondo in C	*I"Clarino Primo in C
*I'Org	*	*I'Vn II	*I'Vn I	*I'B	*	*	*I'C	*	*	*I'Clno II	*I'Clno I
*clefF4	*	*clefG2	*clefG2	*clefF4	*	*	*clefC1	*	*	*clefG2	*clefG2
*Trd0c0	*	*	*	*	*	*	*	*	*	*	*
*k[]	*	*k[]	*k[]	*k[]	*	*	*k[]	*	*	*k[]	*k[]
*C:	*	*C:	*C:	*C:	*	*	*C:	*	*	*C:	*C:
*M3/4	*	*M3/4	*M3/4	*M3/4	*	*	*M3/4	*	*	*M3/4	*M3/4
=1	=1	=1	=1	=1	=1	=1	=1	=1	=1	=1	=1
!LO:TX:b:t=Lauda Jerusalem	!	!LO:TX:b:t=Lauda Jerusalem	!LO:TX:b:t=Lauda Jerusalem	!	!	!	!	!	!	!LO:TX:a:t=Lauda Jerusalem	!LO:TX:a:B:t=Allegro Moderato
!LO:TX:a:B:t=Moderato	!	!LO:TX:a:B:t=Allegro moderato	!LO:TX:a:B:t=Allegro moderato	!	!	!	!	!	!	!LO:TX:b:B:t=Allegro	!LO:TX:a:t=Lauda Jerusalem
*	*	*	*	*^	*	*	*	*	*	*	*
4C/	.	8c/L	8c/L	4C/	4r	Lau-	Lau-	4cc\	Lau-	Lau-	4c/	8c/L
.	.	16e/L	16e/L	.	.	.	.	.	.	.	.	16e/L
.	.	16g/JJ	16g/JJ	.	.	.	.	.	.	.	.	16g/JJ
*	*	*	*2\right	*	*	*	*	*	*	*	*	*tremolo
*	*	*	*tremolo	*	*	*	*	*	*	*	*	*2\right
4r	.	8G/L 8e/	8cc\L	8.E/L	4E\	-da-	-da	4cc\	-da-	-da	8e/L	8cc\L
.	.	8g/	8cc\	.	.	.	.	.	.	.	8c/	8cc\
.	.	.	.	16C/Jk	.	.	.	.	.	.	.	.
4r	.	8G/ 8e/	8cc\	8G/L	4E\	-te	Je-	4cc\	-te	Je-	8e/	8cc\
.	.	8g/J	8cc\J	8E/J	.	.	.	.	.	.	8g/J	8cc\J
*	*	*	*Xtremolo	*	*	*	*	*	*	*	*	*
*	*	*	*	*v	*v	*	*	*	*	*	*	*
=2	=2	=2	=2	=2	=2	=2	=2	=2	=2	=2	=2
8BB\`L	.	2G/ 2e/	2cc\	4.E\	Do-	-ru-	4.cc\	Do-	-ru-	4e/	4cc\
16E\`L	.	.	.	.	.	.	.	.	.	.	.
16G\`JJ	.	.	.	.	.	.	.	.	.	.	.
8c\`L	.	.	.	.	.	.	.	.	.	4r	4r
8c\`	.	.	.	8E\	-mi-	-sa-	8cc\	-mi-	-sa-	.	.
.	.	8qg/	8qqee/	.	.	.	.	.	.	.	.
8c\	2_ 4_	8f/L	8dd\L	4F\	-num	-lem	4dd\	-num	-lem	4r	4r
8c\J	.	16e/L	16cc\L	.	.	.	.	.	.	.	.
.	.	16f/JJ	16dd\JJ	.	.	.	.	.	.	.	.
=3	=3	=3	=3	=3	=3	=3	=3	=3	=3	=3	=3
!	!	!	!	!	!	!	!	!	!	!	!LO:TX:a:t=2
!	!	!	!	!	!	!	!	!	!	!LO:N:vis=0	!LO:N:vis=0
4c\	10 5	(<8g/L	8ee\L	8G\L	om-	Lau-	8ee\L	om-	Do-	1.r	1.r
.	.	8e/)	8cc\	8E\	.	.	8cc\	.	.	.	.
4r	.	(<8a/	8ff\	8A\	.	-da	8ff\	.	.	.	.
.	.	8g/	8ee\	8G\J	.	.	8ee\J	.	.	.	.
4r	.	8f/	8dd\	8F\L	-nes	je-	8dd\L	-nes	.	.	.
.	.	8e/J)	8cc\J	8E\J	.	.	8cc\J	.	.	.	.
=4	=4	=4	=4	=4	=4	=4	=4	=4	=4	=4	=4
!	!	!LO:LB:g=original	!	!	!	!	!	!	!	!	!
.	.	8qqf/	8qqee/	.	.	.	.	.	.	.	.
8r	.	8f/L	8dd\L	8F\L	gen-	-ru-	8dd\L	gen-	.	.	.
8c\L	.	16e/L	8cc\J	8E\J	.	-sa-	8cc\J	.	-mi-	.	.
.	.	16d/JJ	.	.	.	.	.	.	.	.	.
8G\	.	4e/	4cc\	4E\	-tes	-lem	4cc\	-tes	-num	.	.
8E\	.	.	.	.	.	.	.	.	.	.	.
8G\	.	4r	4r	4r	.	.	4r	.	.	.	.
8E\J	.	.	.	.	.	.	.	.	.	.	.
=5	=5	=5	=5	=5	=5	=5	=5	=5	=5	=5	=5
!LO:LB:g=original	!	!	!LO:LB:g=original	!	!	!	!	!	!	!	!
4C/	.	8c/L	8e/L	4c\	lau-	Do-	4ee\	lau-	lau-	8c/L	8e/L
.	.	16e/L	16g/L	.	.	.	.	.	.	16e/L	16g/L
.	.	16g/JJ	16cc\JJ	.	.	.	.	.	.	16g/JJ	16cc\JJ
*	*	*2\right	*	*	*	*	*	*	*	*2\right	*
*	*	*tremolo	*tremolo	*	*	*	*	*	*	*tremolo	*
4r	.	8cc\L	8ee\L	4c\	-da-	-mi-	4ee\	-da-	.	8cc\L	8ee\L
.	.	8cc\	8ee\	.	.	.	.	.	.	8cc\	8ee\
4r	.	8cc\	8ee\	4c\	-te	-num	4ee\	-te	-da	8cc\	8ee\
.	.	8cc\J	8ee\J	.	.	.	.	.	.	8cc\J	8ee\J
*	*	*Xtremolo	*Xtremolo	*	*	*	*	*	*	*Xtremolo	*Xtremolo
=6	=6	=6	=6	=6	=6	=6	=6	=6	=6	=6	=6
*	*	*	*	*2\right	*	*	*2\right	*	*	*	*
!	!	!LO:TX:a:t=problem&colon; mixed beam	!	!	!	!	!	!	!	!LO:LB:g=original	!LO:LB:g=original
8C\L	.	8cc\L	2ee\	2c\	e-	lau-	2ee\	e-	De-	4cc\	4ee\
16E\L	.	8g/J	.	.	.	.	.	.	.	.	.
16G\JJ	.	.	.	.	.	.	.	.	.	.	.
!	!	!LO:TX:a:t=problem&colon; mixed beam	!	!	!	!	!	!	!	!	!
8c\L	.	8cc\L	.	.	.	.	.	.	.	4r	4r
8c\	.	8g/J	.	.	.	.	.	.	.	.	.
.	.	.	16qqgg/	.	.	.	.	.	.	.	.
8c\	.	8dd\L	8ff\L	4d\	-um	-da	4ff\	-um	-um	4r	4r
8c\J	.	16cc\L	16ee\L	.	.	.	.	.	.	.	.
.	.	16dd\JJ	16ff\JJ	.	.	.	.	.	.	.	.
=7	=7	=7	=7	=7	=7	=7	=7	=7	=7	=7	=7
!	!	!LO:TX:a:t=[	!	!LO:LB:g=original	!	!	!LO:LB:g=original	!	!	!LO:TX:a:t=2	!LO:TX:a:t=2
!	!	!	!	!	!	!	!	!	!	!LO:N:vis=0	!LO:N:vis=0
4c\	.	8ee\L	8gg\L	8c\L	om-	De-	8ee\L	om-	tu-	1.r	1.r
.	.	8cc\	8ee\	8G\	.	.	8cc\	.	.	.	.
4r	.	8ff\	8aa\	8A\	.	.	8ff\	.	.	.	.
.	.	8ee\	8gg\	8G\J	.	.	8ee\J	.	.	.	.
4r	.	8dd\	8ff\	8F\L	-nes	-um	8dd\L	-nes	-um	.	.
.	.	8cc\J	8ee\J	8E\J	.	.	8cc\J	.	.	.	.
=8	=8	=8	=8	=8	=8	=8	=8	=8	=8	=8	=8
8r	.	8dd\L	8ff\L	8F\	po-	tu-	8dd\	po-	Si-	.	.
8c\L	.	8cc\J	8ee\J	8E\	-pu-	.	8cc\	-pu-	.	.	.
8G\	.	4cc\	4ee\	4E\	-li	-um	4cc\	-li	-on	.	.
8c\	.	.	.	.	.	.	.	.	.	.	.
8E\	.	4r	4r	4r	.	.	4r	.	.	.	.
8G\J	.	.	.	.	.	.	.	.	.	.	.
=9	=9	=9	=9	=9	=9	=9	=9	=9	=9	=9	=9
16C\LL	.	8cc\	8g\ 8ee\	4c\	lau-	De-	4ee\	lau-	Quo-	4cc\	4ee\
16G\	.	.	.	.	.	.	.	.	.	.	.
16A\	.	8r	8r	.	.	.	.	.	.	.	.
16B\JJ	.	.	.	.	.	.	.	.	.	.	.
16c\LL	.	8cc\	8g\ 8ee\	4c\	-da-	.	4ee\	-da-	-ni-	4cc\	4ee\
16G\	.	.	.	.	.	.	.	.	.	.	.
16A\	.	8r	8r	.	.	.	.	.	.	.	.
16B\JJ	.	.	.	.	.	.	.	.	.	.	.
16c\LL	.	8g\ 8cc\	8g\ 8ee\	4c\	-te	-um	4ee\	-te	-am	4cc\	4ee\
16d\	.	.	.	.	.	.	.	.	.	.	.
16e\	.	8r	8r	.	.	.	.	.	.	.	.
16c\JJ	.	.	.	.	.	.	.	.	.	.	.
=10	=10	=10	=10	=10	=10	=10	=10	=10	=10	=10	=10
!LO:LB:g=original	!	!LO:LB:g=original	!	!	!	!	!	!	!	!	!
16d\LL	4_ 3_	16b\LL	2.g\ 2.ff\	(>4d\	e-	tu-	2ff\	e-	con-	8r	8r
16c\	.	16cc\	.	.	.	.	.	.	.	.	.
16B\	.	16dd\	.	.	.	.	.	.	.	8dd\	8ff\
16c\JJ	.	16ee\JJ	.	.	.	.	.	.	.	.	.
!	!	!	!	!	!	!	!	!	!	!LO:TX:a:t=problem&colon; mixed beam	!
16d\LL	.	16ff\LL	.	4B\)	.	.	.	.	.	8dd\L	8ff\L
16c\	.	16ee\	.	.	.	.	.	.	.	.	.
16B\	.	16dd\	.	.	.	.	.	.	.	8g/	8dd\
16A\JJ	.	16cc\JJ	.	.	.	.	.	.	.	.	.
16G\LL	.	16b\LL	.	4G\	-um	-um	4ff\	-um	-fo-	8dd\	8ff\
16F\	.	16a/	.	.	.	.	.	.	.	.	.
16E\	.	16g/	.	.	.	.	.	.	.	8g/J	8dd\J
16D\JJ	.	16f/JJ	.	.	.	.	.	.	.	.	.
=11	=11	=11	=11	=11	=11	=11	=11	=11	=11	=11	=11
8C\	x	8e/	16ee\LL	2c\	om-	Si-	2ee\	om-	-ra-	4cc\	4ee\
.	.	.	16gg\	.	.	.	.	.	.	.	.
8r	.	8r	16aa\	.	.	.	.	.	.	.	.
.	.	.	16gg\JJ	.	.	.	.	.	.	.	.
8c\	.	8ee\	16aa\LL	.	.	.	.	.	.	4r	4r
.	.	.	16gg\	.	.	.	.	.	.	.	.
8r	.	8r	16aa\	.	.	.	.	.	.	.	.
.	.	.	16gg\JJ	.	.	.	.	.	.	.	.
8c\	.	8cc\ 8ee\	16ccc\LL	4c\	-nes	-on	4ee\	-nes	-vit	4r	4r
.	.	.	16bb\	.	.	.	.	.	.	.	.
8r	.	8r	16aa\	.	.	.	.	.	.	.	.
.	.	.	16gg\JJ	.	.	.	.	.	.	.	.
=12	=12	=12	=12	=12	=12	=12	=12	=12	=12	=12	=12
!	!	!	!LO:LB:g=original	!	!	!	!	!	!	!	!
16d\LL	4_ 3_	16b\LL	2.g\ 2.ff\	4.d\	po-	Si-	4.ff\	po-	se-	8r	8r
16c\	.	16cc\	.	.	.	.	.	.	.	.	.
16B\	.	16dd\	.	.	.	.	.	.	.	8dd\	8ff\L
16c\JJ	.	16ee\JJ	.	.	.	.	.	.	.	.	.
!	!	!	!	!	!	!	!	!	!	!LO:TX:a:t=problem&colon; mixed beam	!
16d\LL	.	16ff\LL	.	.	.	.	.	.	.	8dd\L	8ff\
16c\	.	16ee\	.	.	.	.	.	.	.	.	.
16B\	.	16dd\	.	8d\	-pu-	.	8ff\	-pu-	.	8g/J	8dd\
16A\JJ	.	16cc\JJ	.	.	.	.	.	.	.	.	.
!	!	!	!	!	!	!	!	!	!	!LO:TX:a:t=problem&colon; mixed beam	!
16G\LL	.	16b\LL	.	4d\	-li.	-on	4ff\	-li.	-ras	8dd\L	8ff\
16F\	.	16a/	.	.	.	.	.	.	.	.	.
16E\	.	16g/	.	.	.	.	.	.	.	8g/J	8dd\J
16D\JJ	.	16f/JJ	.	.	.	.	.	.	.	.	.
=13	=13	=13	=13	=13	=13	=13	=13	=13	=13	=13	=13
*	*	*tremolo	*	*	*	*	*	*	*	*	*
!	!	!	!	!	!	!	!LO:LB:g=original	!	!	!	!
!	!	!	!	!LO:TX:a:t=4	!	!	!LO:TX:a:t=4	!	!	!	!
!	!	!	!	!LO:N:vis=00	!	!	!LO:N:vis=00	!	!	!	!
8C\L	x	16G/LL 16g/	16ee\LL	0.r	.	.	0.r	.	.	4cc\	4ee\
.	.	16G/ 16g/	16dd\	.	.	.	.	.	.	.	.
8c\	.	16G/ 16g/	16cc\	.	.	.	.	.	.	.	.
.	.	16G/ 16g/	16dd\JJ	.	.	.	.	.	.	.	.
8c\	.	16G/ 16g/	16ee\LL	.	.	.	.	.	.	4r	4r
.	.	16G/ 16g/	16ff\	.	.	.	.	.	.	.	.
8c\	.	16G/ 16g/	16gg\	.	.	.	.	.	.	.	.
.	.	16G/ 16g/	16ff\JJ	.	.	.	.	.	.	.	.
8c\	.	16G/ 16g/	8ee\	.	.	.	.	.	.	4r	4r
.	.	16G/ 16g/	.	.	.	.	.	.	.	.	.
8c\J	.	16G/ 16g/	8r	.	.	.	.	.	.	.	.
.	.	16G/JJ 16g/	.	.	.	.	.	.	.	.	.
=14	=14	=14	=14	=14	=14	=14	=14	=14	=14	=14	=14
!LO:LB:g=original	!	!	!	!	!	!	!	!	!	!LO:TX:a:t=3	!LO:TX:a:t=3
!	!	!	!	!	!	!	!	!	!	!LO:N:vis=0	!LO:N:vis=0
8r	.	16d/LL 16a/	16ff#X\LL	.	.	.	.	.	.	1.r	1.r
.	.	16d/ 16a/	16ee\	.	.	.	.	.	.	.	.
8c\	4|_ 2	16d/ 16a/	16dd\	.	.	.	.	.	.	.	.
.	.	16d/ 16a/	16ee\JJ	.	.	.	.	.	.	.	.
*2\right	*	*	*	*	*	*	*	*	*	*	*
*tremolo	*	*	*	*	*	*	*	*	*	*	*
8c\L	.	16d/ 16a/	16ff#\LL	.	.	.	.	.	.	.	.
.	.	16d/ 16a/	16gg\	.	.	.	.	.	.	.	.
8c\	.	16d/ 16a/	16aa\	.	.	.	.	.	.	.	.
.	.	16d/ 16a/	16gg\JJ	.	.	.	.	.	.	.	.
8c\	.	16d/ 16a/	8ff#\	.	.	.	.	.	.	.	.
.	.	16d/ 16a/	.	.	.	.	.	.	.	.	.
8c\J	.	16d/ 16a/	8r	.	.	.	.	.	.	.	.
.	.	16d/JJ 16a/	.	.	.	.	.	.	.	.	.
=15	=15	=15	=15	=15	=15	=15	=15	=15	=15	=15	=15
!	!	!LO:LB:g=original	!	!	!	!	!	!	!	!	!
8r	.	16d/LL 16b/	16gg\LL	.	.	.	.	.	.	.	.
.	.	16d/ 16b/	16dd\	.	.	.	.	.	.	.	.
8B\	6:	16d/ 16b/	16ee\	.	.	.	.	.	.	.	.
.	.	16d/ 16b/	16ff#X\JJ	.	.	.	.	.	.	.	.
8B\L	.	16d/ 16b/	16gg\LL	.	.	.	.	.	.	.	.
.	.	16d/ 16b/	16aa\	.	.	.	.	.	.	.	.
8B\	.	16d/ 16b/	16bb\	.	.	.	.	.	.	.	.
.	.	16d/ 16b/	16aa\JJ	.	.	.	.	.	.	.	.
8B\	.	16d/ 16b/	8gg\	.	.	.	.	.	.	.	.
.	.	16d/ 16b/	.	.	.	.	.	.	.	.	.
8B\J	.	16d/ 16b/	8r	.	.	.	.	.	.	.	.
.	.	16d/JJ 16b/	.	.	.	.	.	.	.	.	.
=16	=16	=16	=16	=16	=16	=16	=16	=16	=16	=16	=16
8r	.	16d/LL 16dd/	16aa\LL	.	.	.	.	.	.	2.r	2.r
.	.	16d/ 16dd/	16gg\	.	.	.	.	.	.	.	.
8F#X\	6:	16d/ 16dd/	16ff#X\	.	.	.	.	.	.	.	.
.	.	16d/ 16dd/	16gg\JJ	.	.	.	.	.	.	.	.
8F#\L	.	16d/ 16dd/	16aa\LL	.	.	.	.	.	.	.	.
.	.	16d/ 16dd/	16bb\	.	.	.	.	.	.	.	.
8F#\	.	16d/ 16dd/	16ccc\	.	.	.	.	.	.	.	.
.	.	16d/ 16dd/	16bb\JJ	.	.	.	.	.	.	.	.
8F#\	.	16d/ 16dd/	8aa\	.	.	.	.	.	.	.	.
.	.	16d/ 16dd/	.	.	.	.	.	.	.	.	.
8F#\J	.	16d/ 16dd/	8r	.	.	.	.	.	.	.	.
.	.	16d/JJ 16dd/	.	.	.	.	.	.	.	.	.
=17	=17	=17	=17	=17	=17	=17	=17	=17	=17	=17	=17
!	!	!	!LO:LB:g=original	!	!	!	!	!	!	!	!
16G\LL	.	8gg\	8dd\ 8bb\	16G\	quo-	quo-	8b\	Quo-	Quo-	8r	8r
16D\	.	.	.	16G\	-ni-	-ni-	.	.	.	.	.
16E\	.	8r	8r	8G\	-am	-am	8b\	-ni-	-ni-	8g/	8dd\
16F#X\JJ	.	.	.	.	.	.	.	.	.	.	.
16G\LL	.	8gg\	8dd\ 8bb\	4G\	con-	con-	4b\	-am	-am	8r	8r
16D\	.	.	.	.	.	.	.	.	.	.	.
16E\	.	8r	8r	.	.	.	.	.	.	8g/	8dd\
16F#\JJ	.	.	.	.	.	.	.	.	.	.	.
16G\LL	.	8gg\	8dd\ 8bb\	4G\	-fir-	-fo-	8b\	con-	con-	8r	8r
16A\	.	.	.	.	.	.	.	.	.	.	.
16B\	.	8r	8r	.	.	.	8b\	-fir-	-fo-	8g/	8dd\
16G\JJ	.	.	.	.	.	.	.	.	.	.	.
=18	=18	=18	=18	=18	=18	=18	=18	=18	=18	=18	=18
!	!	!	!	!	!	!	!	!	!	!LO:LB:g=original	!LO:LB:g=original
!	!	!	!	!	!	!	!	!	!	!LO:TX:a:t=1	!LO:TX:a:t=1
16A\LL	4_ 3_	16ff#X\LL	2.dd\ 2.ccc\	2A\	-ma-	-ra-	2cc\	-ma-	-ra-	2.r	2.r
16G\	.	16gg\	.	.	.	.	.	.	.	.	.
16F#X\	.	16aa\	.	.	.	.	.	.	.	.	.
16G\JJ	.	16bb\JJ	.	.	.	.	.	.	.	.	.
16A\LL	.	16ccc\LL	.	.	.	.	.	.	.	.	.
16G\	.	16bb\	.	.	.	.	.	.	.	.	.
16F#\	.	16aa\	.	.	.	.	.	.	.	.	.
16E\JJ	.	16gg\JJ	.	.	.	.	.	.	.	.	.
16D\LL	.	16ff#\LL	.	4A\	-ta	-vit	4cc\	-ta	-vit	.	.
16C\	.	16ee\	.	.	.	.	.	.	.	.	.
16BB\	.	16dd\	.	.	.	.	.	.	.	.	.
16AA\JJ	.	16cc\JJ	.	.	.	.	.	.	.	.	.
=19	=19	=19	=19	=19	=19	=19	=19	=19	=19	=19	=19
!LO:LB:g=original	!	!	!	!	!	!	!	!	!	!	!
8GG/	.	16b\LL	16bb\LL	4G\	eſt	se-	4b\	eſt	se-	4g/	4dd\
.	.	16b\	16gg\	.	.	.	.	.	.	.	.
8r	.	16a\	16ff#X\	.	.	.	.	.	.	.	.
.	.	16b\JJ	16gg\JJ	.	.	.	.	.	.	.	.
8G\	.	16cc\LL	16aa\LL	4G\	su-	-ras	4g\	su-	-ras	4g/	4dd\
.	.	16b\	16gg\	.	.	.	.	.	.	.	.
8r	.	16a\	16ff#\	.	.	.	.	.	.	.	.
.	.	16b\JJ	16gg\JJ	.	.	.	.	.	.	.	.
8G\	.	16dd\LL	16bb\LL	4G\	-per	por-	4b\	-per	tu-	4g/	4dd\
.	.	16b\	16gg\	.	.	.	.	.	.	.	.
8r	.	16a\	16ff#\	.	.	.	.	.	.	.	.
.	.	16b\JJ	16gg\JJ	.	.	.	.	.	.	.	.
=20	=20	=20	=20	=20	=20	=20	=20	=20	=20	=20	=20
!	!	!LO:LB:g=original	!	!	!	!	!	!	!	!LO:TX:a:t=1	!LO:TX:a:t=1
16A\LL	4_ 3_	16f#X/LL	2.dd\ 2.ccc\	2A\	nos	-ta-	2cc\	nos	-a-	2.r	2.r
16G\	.	16g/	.	.	.	.	.	.	.	.	.
16F#X\	.	16a/	.	.	.	.	.	.	.	.	.
16G\JJ	.	16b\JJ	.	.	.	.	.	.	.	.	.
16A\LL	.	16cc\LL	.	.	.	.	.	.	.	.	.
16G\	.	16b\	.	.	.	.	.	.	.	.	.
16F#\	.	16a\	.	.	.	.	.	.	.	.	.
16E\JJ	.	16g/JJ	.	.	.	.	.	.	.	.	.
16D\LL	.	16f#/LL	.	4A\	mi-	-rum	4cc\	mi-	-rum	.	.
16C/	.	16e/	.	.	.	.	.	.	.	.	.
16BB/	.	16d/	.	.	.	.	.	.	.	.	.
16AA/JJ	.	16c/JJ	.	.	.	.	.	.	.	.	.
=21	=21	=21	=21	=21	=21	=21	=21	=21	=21	=21	=21
!LO:TX:a:t=problem&colon; mixed beam	!	!	!	!	!	!	!	!	!	!	!
8GG/L	.	4B/ 4d/	(>4bb\`	4G\	-se-	se-	4b\	-se-	non	4r	4r
8G\	.	.	.	.	.	.	.	.	.	.	.
8G\	.	(<4d/ 4b/	4gg\	4B\	.	-ras	4gg\	.	fe-	4r	4r
8G\	.	.	.	.	.	.	.	.	.	.	.
8G\	7n	4dd\)	4ffn\)	4d\	-ri-	por-	4ffn\	-ri	-cit	4dd\	4ff\
8G\J	.	.	.	.	.	.	.	.	.	.	.
=22	=22	=22	=22	=22	=22	=22	=22	=22	=22	=22	=22
8G\L	6 4	(>4cc\	(>4ee\	4c\	-cor-	-ta-	4.ee\	cor-	ta-	4cc\	4ee\
8G\	.	.	.	.	.	.	.	.	.	.	.
8G\	.	4ee\	4ccc\	4c\	-di-	-rum	.	.	.	4r	4r
8G\J	.	.	.	.	.	.	8ee\	-di-	-li-	.	.
*Xtremolo	*	*	*	*	*	*	*	*	*	*	*
8G\L	.	4a\)	4ff#X\)	4A\	-a	{por	4ff#X\	-a	-ter	4r	4r
8G\J	.	.	.	.	.	.	.	.	.	.	.
=23	=23	=23	=23	=23	=23	=23	=23	=23	=23	=23	=23
!LO:TX:a:t=problem&colon; mixed beam	!	!	!LO:LB:g=original	!	!	!	!LO:LB:g=original	!	!	!	!
8GG/L	8_	4d/ 4b/	4gg\	2B\	e-	ta-	2gg\	e-	om-	4r	4r
8G\	.	.	.	.	.	.	.	.	.	.	.
8G\	.	(>4b\	4gg\	.	.	.	.	.	.	4r	4r
8G\	.	.	.	.	.	.	.	.	.	.	.
8G\	7n	4dd\)	(>16gg\LL	4d\	-jus:	-rum}	4ffn\	-jus	-ni	8dd\L	8ff\L
.	.	.	16ffn\	.	.	.	.	.	.	.	.
8G\J	.	.	16ee\	.	.	.	.	.	.	8dd\J	8ff\J
.	.	.	16ff\JJ)	.	.	.	.	.	.	.	.
=24	=24	=24	=24	=24	=24	=24	=24	=24	=24	=24	=24
*tremolo	*	*	*	*	*	*	*	*	*	*	*
!LO:LB:g=original	!	!	!	!LO:LB:g=original	!	!	!	!	!	!	!
8G\L	6 4	(>4cc\	4ee\	4c\	et	Glo-	4ee\	et	na-	4cc\	4ee\
8G\	.	.	.	.	.	.	.	.	.	.	.
8G\	.	4ee\)	4ccc\	8c\	ve-	-ri-	8ee\	ve-	-ti-	4r	4r
8G\J	.	.	.	8c\	-ri-	-a	8ee\	-ri-	-o-	.	.
*Xtremolo	*	*	*	*	*	*	*	*	*	*	*
8G\L	3# 2	8a\L	4ff#X\	4A\	-tas	Pat-	4ff#X\	-tas	-ni	4r	4r
8G\J	.	8cc\J	.	.	.	.	.	.	.	.	.
=25	=25	=25	=25	=25	=25	=25	=25	=25	=25	=25	=25
!	!	!	!LO:TX:a:t=problem:takt 24 powtórzony, wykreślony	!	!	!	!	!	!	!	!
4G\	.	16d/LL 16b/	4gg\	4B\	Do-	-ri	4.gg\	Do-	et-	4r	4r
.	.	16d/ 16b/	.	.	.	.	.	.	.	.	.
.	.	16d/ 16b/	.	.	.	.	.	.	.	.	.
.	.	16d/ 16b/	.	.	.	.	.	.	.	.	.
4r	.	16d/ 16b/	16gg\LL	4B\	-mi-	et	.	.	.	4r	4r
.	.	16d/ 16b/	16ff#X\	.	.	.	.	.	.	.	.
.	.	16d/ 16b/	16gg\	.	.	.	8gg\	-mi-	-jus-	.	.
.	.	16d/ 16b/	16aa\JJ	.	.	.	.	.	.	.	.
!	!	!	!	!	!	!	!	!	!	!LO:TX:a:t=problem&colon; mixed beam	!
4r	.	16d/ 16b/	16ffn\LL	4d\	-ni	fi-	4ffn\	-ni	-titia	8dd\L	8ff\L
.	.	16d/ 16b/	16ee\	.	.	.	.	.	.	.	.
.	.	16d/ 16b/	16ff\	.	.	.	.	.	.	8g/J	8ff\J
.	.	16d/JJ 16b/	16gg\JJ	.	.	.	.	.	.	.	.
*	*	*Xtremolo	*	*	*	*	*	*	*	*	*
=26	=26	=26	=26	=26	=26	=26	=26	=26	=26	=26	=26
8C/L	.	4g/	4ee\	2G\	ma-	-li-	2ee\	ma-	su-	4cc\	4ee\
8C/	.	.	.	.	.	.	.	.	.	.	.
8C/	.	(16g/LL	16ee\LL	.	.	.	.	.	.	4r	4r
.	.	16fn/	16dd\	.	.	.	.	.	.	.	.
8C/	.	16g/	16ee\	.	.	.	.	.	.	.	.
.	.	16a/JJ)	16ff\JJ	.	.	.	.	.	.	.	.
8GG/	n	(16f/LL	16dd\LL	4F\	-net	-o	4dd\	-net	-a	8g/L	8dd\L
.	.	16e/	16cc\	.	.	.	.	.	.	.	.
8GG/J	.	16f/	16dd\	.	.	.	.	.	.	8g/J	8dd\J
.	.	16g/JJ)	16ee\JJ	.	.	.	.	.	.	.	.
=27	=27	=27	=27	=27	=27	=27	=27	=27	=27	=27	=27
!	!	!LO:LB:g=original	!	!	!	!	!	!	!	!	!LO:LB:g=original
8C\L	.	4G/ 4e/	4cc\	4E\	ma-	et	4cc\	ma-	non	4e/	4cc\
8c\	.	.	.	.	.	.	.	.	.	.	.
8c\	.	16ee\LL	16gg\LL	4e\	.	Spi-	4gg\	-net	ma-	4r	4r
.	.	16dd\	16ff#X\	.	.	.	.	.	.	.	.
8c\J	.	16ee\	16gg\	.	.	.	.	.	.	.	.
.	.	16ff\JJ	16aa\JJ	.	.	.	.	.	.	.	.
8B\L	6 5	16dd\LL	16ffn\LL	4d\	-net	-ri-	8ff\	in	-ni-	8dd\L	8ff\L
.	.	16cc\	16ee\	.	.	.	.	.	.	.	.
8B\J	.	16dd\	16ff\	.	.	.	8ff\	ae-	-fes-	8dd\J	8ff\J
.	.	16ee\JJ	16gg\JJ	.	.	.	.	.	.	.	.
=28	=28	=28	=28	=28	=28	=28	=28	=28	=28	=28	=28
*tremolo	*	*	*	*	*	*	*	*	*	*	*
!	!	!LO:TX:a:t=problem&colon; mixed beam	!	!	!	!	!LO:LB:g=original	!	!	!LO:LB:g=original	!
8c\L	.	8cc\L	4ee\	16c\	in	-tu-	2ee\	-ter-	-ta-	4cc\	4ee\
.	.	.	.	16c\	ae-	-i	.	.	.	.	.
!	!	!	!	!LO:TX:a:t=problem:niepełny takt, brak pauzy	!	!	!	!	!	!	!
8c\	.	8g/J	.	8ryy	.	.	.	.	.	.	.
8c\	.	16g/LL	16ee\LL	4c\	-ter-	San-	.	.	.	4r	4r
.	.	(<16f/	16dd\	.	.	.	.	.	.	.	.
8c\J	.	16g/	16ee\	.	.	.	.	.	.	.	.
.	.	16a/JJ)	16ff\JJ	.	.	.	.	.	.	.	.
*Xtremolo	*	*	*	*	*	*	*	*	*	*	*
8G\L 8B\	6 5	16f/LL	16dd\LL	4G\	-num.	-cto.	4dd\	-num	-vit	8g/L	8dd\L
.	.	(<16e/	16cc\	.	.	.	.	.	.	.	.
8G\J 8B\	.	16f/	16dd\	.	.	.	.	.	.	8g/J	8ee\J
.	.	16g/JJ)	16ee\JJ	.	.	.	.	.	.	.	.
=29	=29	=29	=29	=29	=29	=29	=29	=29	=29	=29	=29
!	!	!	!LO:TX:a:t=problem&colon; mixed beam	!	!	!	!	!	!	!	!LO:TX:a:t=problem:mixed beam
4c\	.	8G/ 8e/	16cc\LL	(>4C/	Si-	.	4cc\	Glo-	.	8e/L	8cc\L
.	.	.	16g/	.	.	.	.	.	.	.	.
.	.	8r	16e/	.	.	.	.	.	.	8g/	8g/J
.	.	.	16g/JJ	.	.	.	.	.	.	.	.
*	*	*	*tremolo	*	*	*	*	*	*	*	*tremolo
4r	.	8G/L 8e/	8cc\L	4E/)	.	.	4cc\	-ri-	.	8e/	8cc\L
.	.	8g/	8cc\	.	.	.	.	.	.	8g/	8cc\
4r	.	8G/ 8e/	8cc\	4G\	-cut	.	4cc\	-a	.	8e/	8cc\
.	.	8g/J	8cc\J	.	.	.	.	.	.	8g/J	8cc\J
*	*	*	*Xtremolo	*	*	*	*	*	*	*	*Xtremolo
=30	=30	=30	=30	=30	=30	=30	=30	=30	=30	=30	=30
!LO:LB:g=original	!	!	!	!LO:LB:g=original	!	!	!	!	!	!	!
8C/L	.	2e/	2cc\	2E\	e-	.	2cc\	Pat-	.	4e/	4cc\
16E\L	.	.	.	.	.	.	.	.	.	.	.
16G\JJ	.	.	.	.	.	.	.	.	.	.	.
*tremolo	*	*	*	*	*	*	*	*	*	*	*
8c\L	.	.	.	.	.	.	.	.	.	4r	4r
8c\	.	.	.	.	.	.	.	.	.	.	.
.	.	8qg/	8qee/	.	.	.	.	.	.	.	.
8c\	.	8f/L	8dd\L	4F\	-rat	.	4dd\	-ri	.	4r	4r
8c\J	.	16e/L	16cc\L	.	.	.	.	.	.	.	.
.	.	16f/JJ	16dd\JJ	.	.	.	.	.	.	.	.
=31	=31	=31	=31	=31	=31	=31	=31	=31	=31	=31	=31
!	!	!	!	!	!	!	!	!	!	!	!LO:TX:a:t=2
!	!	!	!	!	!	!	!	!	!	!LO:N:vis=0	!LO:N:vis=0
4c\	.	(<8g/L	8ee\L	8G\L	in	.	8ee\L	et	.	1.r	1.r
.	.	8e/)	8cc\	8E\	.	.	8cc\	.	.	.	.
4r	.	(<8a/	8ff\	8A\	.	.	8ff\	.	.	.	.
.	.	8g/	8ee\	8G\J	.	.	8ee\	.	.	.	.
4r	.	8f/	8dd\	8F\L	prin-	.	8dd\	.	.	.	.
.	.	8e/J)	8cc\J	8E\J	.	.	8cc\J	.	.	.	.
=32	=32	=32	=32	=32	=32	=32	=32	=32	=32	=32	=32
!	!	!LO:LB:g=original	!LO:LB:g=original	!	!	!	!	!	!	!	!
8r	.	8f/L	8dd\L	8F\	-ci-	.	8dd\	fi-	.	.	.
8c\L	.	8e/J	8cc\J	8E\	-pi-	.	8cc\	-li-	.	.	.
8G\	.	4e/	4cc\	4E\	-o,	.	4cc\	-o	.	.	.
8c\	.	.	.	.	.	.	.	.	.	.	.
8E\	.	4r	4r	4r	.	.	4r	.	.	.	.
8G\J	.	.	.	.	.	.	.	.	.	.	.
=33	=33	=33	=33	=33	=33	=33	=33	=33	=33	=33	=33
!	!	!	!	!	!	!	!LO:LB:g=original	!	!	!LO:TX:a:t=problem&colon; mixed beam	!
4C/	.	16cc\LL	16ee\LL	4c\	et	.	2ee\	et	.	8cc\L	8ee\L
.	.	16g\	16cc\	.	.	.	.	.	.	.	.
.	.	16e\	16g\	.	.	.	.	.	.	8g/J	8cc\
.	.	16g\JJ	16cc\JJ	.	.	.	.	.	.	.	.
*	*	*tremolo	*tremolo	*	*	*	*	*	*	*tremolo	*
4r	.	8cc\L	8ee\L	4c\	nunc	.	.	.	.	8cc\L	8ee\
.	.	8cc\	8ee\	.	.	.	.	.	.	8cc\	8ee\
4r	.	8cc\	8ee\	4c\	et	.	4ee\	Spi-	.	8cc\	8ee\
.	.	8cc\J	8ee\J	.	.	.	.	.	.	8cc\J	8ee\J
*	*	*Xtremolo	*Xtremolo	*	*	*	*	*	*	*Xtremolo	*
=34	=34	=34	=34	=34	=34	=34	=34	=34	=34	=34	=34
16c\LL	.	2cc\	2ee\	2c\	sem-	.	4ee\	-ri-	.	4cc\	4ee\
16G\	.	.	.	.	.	.	.	.	.	.	.
16E\	.	.	.	.	.	.	.	.	.	.	.
16G\JJ	.	.	.	.	.	.	.	.	.	.	.
8c\L	.	.	.	.	.	.	4ee\	-tu-	.	4r	4r
8c\	.	.	.	.	.	.	.	.	.	.	.
.	.	8qee/	8qgg/	.	.	.	.	.	.	.	.
8c\	.	8dd\L	8ff\L	4d\	-per,	.	4ff\	-i	.	4r	4r
8c\J	.	16cc\L	16ee\L	.	.	.	.	.	.	.	.
.	.	16dd\JJ	16ff\JJ	.	.	.	.	.	.	.	.
=35	=35	=35	=35	=35	=35	=35	=35	=35	=35	=35	=35
!	!	!	!	!	!	!	!	!	!	!LO:TX:a:t=2	!LO:TX:a:t=2
!	!	!	!	!	!	!	!	!	!	!LO:N:vis=0	!LO:N:vis=0
4c\	.	(>8ee\L	8gg\L	8e\L	et	.	4ee\	San-	.	1.r	1.r
.	.	8cc\)	8ee\	8c\J	.	.	.	.	.	.	.
4r	.	(>8ff\	8aa\	8A\L	nunc	.	8ff\L	.	.	.	.
.	.	8ee\)	8gg\	8G\J	.	.	8ee\	.	.	.	.
4r	.	(>8dd\	8ff\	8F\L	et	.	8ff\	.	.	.	.
.	.	8cc\J)	8ee\J	8E\J	.	.	8ee\J	.	.	.	.
=36	=36	=36	=36	=36	=36	=36	=36	=36	=36	=36	=36
!	!	!	!	!LO:LB:g=original	!	!	!	!	!	!	!
.	.	.	8qgg/	.	.	.	.	.	.	.	.
8r	.	8dd\L	8ff\L	4G\	sem-	.	8ff\L	.	.	.	.
8c\L	.	8cc\J	8ee\J	.	.	.	8ee\J	.	.	.	.
8G\	.	4cc\	4ee\	4c\	-per,	.	4ee\	-cto,	.	.	.
8c\	.	.	.	.	.	.	.	.	.	.	.
8E\	.	4r	4r	4r	.	.	4r	.	.	.	.
8G\J	.	.	.	.	.	.	.	.	.	.	.
=37	=37	=37	=37	=37	=37	=37	=37	=37	=37	=37	=37
!LO:LB:g=original	!	!	!	!	!	!	!	!	!	!	!
8C\L	.	8g\ 8ee\	16gg\LL	2c\	et	.	2ee\	et	.	4cc\	4ee\
.	.	.	16ff\	.	.	.	.	.	.	.	.
8c\J	.	4g\ 4ee\	16ee\	.	.	.	.	.	.	.	.
.	.	.	16ff\JJ	.	.	.	.	.	.	.	.
8c\L	.	.	16gg\LL	.	.	.	.	.	.	4ee\	4gg\
.	.	.	16aa\	.	.	.	.	.	.	.	.
8c\	.	4g\ 4ee\	16bb\	.	.	.	.	.	.	.	.
.	.	.	16ccc\JJ	.	.	.	.	.	.	.	.
8c\	.	.	16ccc\LL	4c\	in	.	4ee\	in	.	4r	4r
.	.	.	16bb\	.	.	.	.	.	.	.	.
8c\J	.	8g\ 8ee\	16aa\	.	.	.	.	.	.	.	.
.	.	.	16gg\JJ	.	.	.	.	.	.	.	.
=38	=38	=38	=38	=38	=38	=38	=38	=38	=38	=38	=38
!	!	!LO:LB:g=original	!LO:LB:g=original	!	!	!	!	!	!	!	!
8B\L	6 5	8g\ 8dd\	16gg\LL	4d\	sae-	.	4ff\	sae-	.	4r	4r
.	.	.	16ff\	.	.	.	.	.	.	.	.
8B\	.	4g\ 4dd\	16ee\	.	.	.	.	.	.	.	.
.	.	.	16ff\JJ	.	.	.	.	.	.	.	.
8B\	.	.	16dd\LL	4B\	-cu-	.	4dd\	-cu-	.	4g/	4dd\
.	.	.	16ee\	.	.	.	.	.	.	.	.
8B\	.	4g\ 4dd\	16ff\	.	.	.	.	.	.	.	.
.	.	.	16gg\JJ	.	.	.	.	.	.	.	.
.	.	.	8qgg/	.	.	.	.	.	.	.	.
8B\	.	.	8ff\L	4d\	-la	.	4ff\	-la	.	4dd\	4ff\
8B\J	.	8g\ 8dd\	16ee\L	.	.	.	.	.	.	.	.
.	.	.	16ff\JJ	.	.	.	.	.	.	.	.
=39	=39	=39	=39	=39	=39	=39	=39	=39	=39	=39	=39
*	*	*tremolo	*	*	*	*	*	*	*	*	*
!LO:TX:a:t=problem&colon; mixed beam	!	!	!	!	!	!	!LO:LB:g=original	!	!	!	!LO:LB:g=original
8c\L	.	16g\LL 16ee\	16ee\LL	2c\	sae-	.	2ee\	sae-	.	4cc\	4ee\
.	.	16g\ 16ee\	16ff\	.	.	.	.	.	.	.	.
8C/J	.	16g\ 16ee\	16gg\	.	.	.	.	.	.	.	.
.	.	16g\ 16ee\	16aa\JJ	.	.	.	.	.	.	.	.
8C/L	.	16g\ 16ee\	16gg\LL	.	.	.	.	.	.	4ee\	4gg\
.	.	16g\ 16ee\	16aa\	.	.	.	.	.	.	.	.
8C/	.	16g\ 16ee\	16bb\	.	.	.	.	.	.	.	.
.	.	16g\ 16ee\	16ccc\JJ	.	.	.	.	.	.	.	.
8C/	.	16g\ 16ee\	16ccc\LL	4c\	-cu-	.	4ee\	-cu-	.	4r	4r
.	.	16g\ 16ee\	16bb\	.	.	.	.	.	.	.	.
8C/J	.	16g\ 16ee\	16aa\	.	.	.	.	.	.	.	.
.	.	16g\JJ 16ee\	16gg\JJ	.	.	.	.	.	.	.	.
=40	=40	=40	=40	=40	=40	=40	=40	=40	=40	=40	=40
8BB/L	6 5	16g\LL 16dd\	16gg\LL	4d\	-lo-	.	4ff\	-lo-	.	4r	4r
.	.	16g\ 16dd\	16ff\	.	.	.	.	.	.	.	.
8BB/	.	16g\ 16dd\	16ee\	.	.	.	.	.	.	.	.
.	.	16g\ 16dd\	16ff\JJ	.	.	.	.	.	.	.	.
8BB/	.	16g\ 16dd\	16dd\LL	4B\	.	.	4dd\	.	.	4g/	4dd\
.	.	16g\ 16dd\	16ee\	.	.	.	.	.	.	.	.
8BB/	.	16g\ 16dd\	16ff\	.	.	.	.	.	.	.	.
.	.	16g\ 16dd\	16gg\JJ	.	.	.	.	.	.	.	.
.	.	.	8qgg/	.	.	.	.	.	.	.	.
8BB/	.	16g\ 16dd\	8ff\L	4d\	-rum.	.	4ff\	-rum.	.	8dd\L	8ff\L
.	.	16g\ 16dd\	.	.	.	.	.	.	.	.	.
8BB/J	.	16g\ 16dd\	16ee\L	.	.	.	.	.	.	8dd\J	8ff\J
.	.	16g\JJ 16dd\	16ff\JJ	.	.	.	.	.	.	.	.
*Xtremolo	*	*	*	*	*	*	*	*	*	*	*
=41	=41	=41	=41	=41	=41	=41	=41	=41	=41	=41	=41
!	!	!	!	!	!	!	!	!	!	!LO:LB:g=original	!
8C\L	.	8g/L	8ee\L	4c\	A-	.	4ee\	A-	.	4cc\	4ee\
8C\	.	16f/L	16dd\L	.	.	.	.	.	.	.	.
.	.	16g/JJ	16ee\JJ	.	.	.	.	.	.	.	.
8F\	6	8a/L	8ff\L	4F\	.	.	8ff\L	.	.	8r	8r
8F\	.	8f/	8dd\	.	.	.	8dd\	.	.	8g/L	8dd\L
8G\	.	8e/	8cc\	4G\	.	.	8cc\	.	.	8e/	8cc\
8G\J	.	8d/J	8b\J	.	.	.	8b\J	.	.	8g/J	8dd\J
=42	=42	=42	=42	=42	=42	=42	=42	=42	=42	=42	=42
!	!	!	!LO:LB:g=original	!	!	!	!	!	!	!	!
4C/	.	4e/	4cc\	4C/	-men	.	4cc\	-men.	.	4e/	4cc\
4r	.	8e/L	8cc\L	4r	.	.	4r	.	.	4r	4r
.	.	8g/J	8dd\	.	.	.	.	.	.	.	.
4r	.	8cc\L	8ee\	4r	.	.	4r	.	.	4r	4r
.	.	8dd\J	8ff\J	.	.	.	.	.	.	.	.
=43	=43	=43	=43	=43	=43	=43	=43	=43	=43	=43	=43
*tremolo	*	*	*	*	*	*	*	*	*	*	*
8c\L	.	8g\ 8ee\	16gg\LL	2c\	A-	.	2ee\	et-	.	4cc\	4ee\
.	.	.	16ff\	.	.	.	.	.	.	.	.
8c\	.	4g\ 4ee\	16ee\	.	.	.	.	.	.	.	.
.	.	.	16ff\JJ	.	.	.	.	.	.	.	.
8c\	.	.	16gg\LL	.	.	.	.	.	.	4ee\	4gg\
.	.	.	16aa\	.	.	.	.	.	.	.	.
8c\	.	4g\ 4ee\	16bb\	.	.	.	.	.	.	.	.
.	.	.	16ccc\JJ	.	.	.	.	.	.	.	.
8c\	.	.	16ccc\LL	4c\	-men	.	4ee\	-in	.	4r	4r
.	.	.	16bb\	.	.	.	.	.	.	.	.
8c\J	.	8g\ 8ee\	16aa\	.	.	.	.	.	.	.	.
.	.	.	16gg\JJ	.	.	.	.	.	.	.	.
=44	=44	=44	=44	=44	=44	=44	=44	=44	=44	=44	=44
!	!	!LO:LB:g=original	!	!	!	!	!	!	!	!	!
8B\L	6 5	8g\ 8dd\	16gg\LL	4d\	{-A	.	4ff\	sae-	.	4r	4r
.	.	.	16ff\	.	.	.	.	.	.	.	.
8B\	.	4g\ 4dd\	16ee\	.	.	.	.	.	.	.	.
.	.	.	16ff\JJ	.	.	.	.	.	.	.	.
8B\	.	.	16dd\LL	4B\	.	.	4dd\	-cu-	.	4g/	4dd\
.	.	.	16ee\	.	.	.	.	.	.	.	.
8B\	.	4g\ 4dd\	16ff\	.	.	.	.	.	.	.	.
.	.	.	16gg\JJ	.	.	.	.	.	.	.	.
.	.	.	8qqgg/	.	.	.	.	.	.	.	.
8B\	.	.	8ff\L	4d\	-men}	.	4ff\	-la	.	4dd\	4ff\
8B\J	.	8g\ 8dd\	16ee\L	.	.	.	.	.	.	.	.
.	.	.	16ff\JJ	.	.	.	.	.	.	.	.
*Xtremolo	*	*	*	*	*	*	*	*	*	*	*
=45	=45	=45	=45	=45	=45	=45	=45	=45	=45	=45	=45
!LO:LB:g=original	!	!	!	!LO:LB:g=original	!	!	!LO:LB:g=original	!	!	!	!
8c\L	.	16g\LL 16ee\	16ee\LL	2c\	A-	.	2ee\	sae-	.	4cc\	4ee\
.	.	16g\ 16ee\	16ff\	.	.	.	.	.	.	.	.
8G\	.	16g\ 16ee\	16gg\	.	.	.	.	.	.	.	.
.	.	16g\ 16ee\	16aa\JJ	.	.	.	.	.	.	.	.
8c\	.	16g\ 16ee\	16gg\LL	.	.	.	.	.	.	4ee\	4gg\
.	.	16g\ 16ee\	16aa\	.	.	.	.	.	.	.	.
8G\	.	16g\ 16ee\	16bb\	.	.	.	.	.	.	.	.
.	.	16g\ 16ee\	16ccc\JJ	.	.	.	.	.	.	.	.
8c\	.	16g\ 16ee\	16ccc\LL	4c\	-men	.	4ee\	-cu-	.	4r	4r
.	.	16g\ 16ee\	16bb\	.	.	.	.	.	.	.	.
8G\J	.	16g\ 16ee\	16aa\	.	.	.	.	.	.	.	.
.	.	16g\JJ 16ee\	16gg\JJ	.	.	.	.	.	.	.	.
=46	=46	=46	=46	=46	=46	=46	=46	=46	=46	=46	=46
!	!	!	!LO:LB:g=original	!	!	!	!	!	!	!	!
8d\L	4_ 3_	16g\LL 16dd\	16gg\LL	4d\	A-	.	4ff\	-lo-	.	4r	4r
.	.	16g\ 16dd\	16ff\	.	.	.	.	.	.	.	.
8G\	.	16g\ 16dd\	16ee\	.	.	.	.	.	.	.	.
.	.	16g\ 16dd\	16ff\JJ	.	.	.	.	.	.	.	.
8B\	.	16g\ 16dd\	16dd\LL	4B\	.	.	4dd\	.	.	4g/	4dd\
.	.	16g\ 16dd\	16ee\	.	.	.	.	.	.	.	.
8G\	.	16g\ 16dd\	16ff\	.	.	.	.	.	.	.	.
.	.	16g\ 16dd\	16gg\JJ	.	.	.	.	.	.	.	.
.	.	.	8qqgg/	.	.	.	.	.	.	.	.
8d\	x	16g\ 16dd\	8ff\L	4d\	.	.	4ff\	-rum.	.	8dd\L	8ff\L
.	.	16g\ 16dd\	.	.	.	.	.	.	.	.	.
8G\J	.	16g\ 16dd\	16ee\L	.	.	.	.	.	.	8dd\J	8ff\J
.	.	16g\JJ 16dd\	16ff\JJ	.	.	.	.	.	.	.	.
=47	=47	=47	=47	=47	=47	=47	=47	=47	=47	=47	=47
!	!	!	!	!	!	!	!	!	!	!	!LO:LB:g=original
8c\L	.	8g/L	8ee\L	4c\	.	.	4ee\	A-	.	4cc\	4ee\
8c\	.	16f/L	16dd\L	.	.	.	.	.	.	.	.
.	.	16g/JJ	16ee\JJ	.	.	.	.	.	.	.	.
8F\	6	8a/L	8ff\L	4F\	.	.	8ff\L	.	.	8r	8r
8F\	.	8f/	8dd\	.	.	.	8dd\	.	.	8g/L	8dd\L
8G\	.	8e/	8cc\	4G\	.	.	8cc\	.	.	8e/	8cc\
8G\J	.	8d/J	8b\J	.	.	.	8b\J	.	.	8g/J	8dd\J
=48	=48	=48	=48	=48	=48	=48	=48	=48	=48	=48	=48
*	*	*	*tremolo	*	*	*	*	*	*	*	*
4C/	.	4G/ 4e/	16cc\LL	4C/	-men	.	4cc\	-men	.	4e/	4cc\
.	.	.	16cc\	.	.	.	.	.	.	.	.
.	.	.	16cc\	.	.	.	.	.	.	.	.
.	.	.	16cc\JJ	.	.	.	.	.	.	.	.
4r	.	8e/L	16ee\LL	4r	.	.	4r	.	.	4r	4r
.	.	.	16ee\	.	.	.	.	.	.	.	.
.	.	8g/J	16ee\	.	.	.	.	.	.	.	.
.	.	.	16ee\JJ	.	.	.	.	.	.	.	.
4r	.	8cc\L	16gg\LL	4r	.	.	4r	.	.	4r	4r
.	.	.	16gg\	.	.	.	.	.	.	.	.
.	.	8dd\J	16gg\	.	.	.	.	.	.	.	.
.	.	.	16gg\JJ	.	.	.	.	.	.	.	.
*	*	*	*Xtremolo	*	*	*	*	*	*	*	*
=49	=49	=49	=49	=49	=49	=49	=49	=49	=49	=49	=49
8C\L	.	4cc\	4ccc\	8r	.	.	2.ee\	A-	.	4g/	4ee\
8c\	.	.	.	8c\L	A-	.	.	.	.	.	.
8G\	.	4g\ 4ee\	4ee\ 4ccc\	8G\	.	.	.	.	.	4e/	4cc\
8E\	.	.	.	8E\	.	.	.	.	.	.	.
8G\	.	4g\ 4ee\	4ee\ 4ccc\	8G\	.	.	.	.	.	4e/	4cc\
8E\J	.	.	.	8E\J	.	.	.	.	.	.	.
=50	=50	=50	=50	=50	=50	=50	=50	=50	=50	=50	=50
!	!	!LO:LB:g=original	!	!	!	!	!	!	!	!	!
2.C/	.	2.c\ 2.g\ 2.ee\	2.ee\ 2.ccc\	4C/	-men.	.	2ee\	-men.	.	2.e/	2.cc\
.	.	.	.	4r	.	.	.	.	.	.	.
.	.	.	.	4r	.	.	4r	.	.	.	.
==	==	==	==	==	==	==	==	==	==	==	==
*-	*-	*-	*-	*-	*-	*-	*-	*-	*-	*-	*-
!!!system-decoration: [g1][g2][g3][g4]
!!!RDF**kern: > = above
!!!RDF**kern: < = below
!!!ENC: Anna Matuszewska
!!!END: 2020-06-20
